X:1
T:'97 Fiesta March
T:L. F. Gottschalk
T:Copyright by Bartlett Bros., 1897
T:Copyright by Bartlett Bros., 1897
T:Copyright by Bartlett Bros., 1897
Z:Copyright by Bartlett Bros., 1897
%%score { ( 1 3 ) | ( 2 4 ) }
L:1/8
Q:1/4=150
M:6/8
K:Bb
V:1 treble nm="Piano" snm="Pno."
V:3 treble 
V:2 bass 
V:4 bass 
V:1
!ff! [ff']2 [=e=e'] [ff']2 [^f^f'] | [aa'][gg'][=f=f'] [_e_e'][dd'][cc'] | %2
 [Bb][Aa][Gg] [Ff][=E=e][Gg] | [Ff]2 z !>![faf']2 z |:!f! F2 A B2 c | d2 g f2 d | %6
 e2 [Aeg] [Aeg]2 [Aeg] | [Aeg]3- [Aeg] z z | F2 A c2 d | e2 a g2 e | d2 [Bdg] [Bdg]2 [Bdg] | %11
 [Bdg]3- [Bdg] z z | F2 A B2 c | d2 g f2 d | c2 [Aca] [Aca]2 [Aca] | [Aca]3- [Aca] z z | %16
 [cc']2 [=B=b] [cc']2 [^c^c'] | [=e=e'][dd'][=c=c'] [Bb][Aa][Gg] | [Ff]2 z !>![ff']2 z | %19
 !>![Ff]2 z z2 z :|[K:bass] !>!E,3 !>!=B,,3 | !>!D,3 !>!C,3 | !>!B,,2[K:treble] (d g2) (d | %23
 f3-) f2 B | A2 (e g2) (A | f3-) f2 A | B2 (d g2) (d | f3-) f2 z |[K:bass] !>!E,3 !>!=B,,3 | %29
 !>!D,3 !>!C,3 | !>!B,,2[K:treble] (d g2) (d | f3-) f2 (d | c2) (g f2) (d | c2) A FGA | %34
 G2 z !>![=EBc]2 z | !>![FAf]2 z z2 z |[K:bass] !>!E,3 !>!=B,,3 | !>!D,3 !>!C,3 | %38
 !>!B,,2[K:treble] (d g2) (d | f3-) f2 B | A2 (e g2) (A | f3-) f2 A | B2 (d g2) (d | f3-) f2 z | %44
[K:bass] !>!E,3 !>!=B,,3 | !>!D,3 !>!C,3 | !>!B,,2[K:treble] (d g2) (d | f3-) f2 (d | %48
 c2) (g f2) (d |!<(! e2 d cde | f2)!<)!!ff! z !>![Aef]2 z | !>![Bdb]2 z z2 z |: %52
[K:Eb]!f!"_legato" G6 | B6 | A2 C D2 F | E6 | C6 | B,6 | z2 F =E2 F | G2 F D2 B, | [GBg]6 | %61
 [Beb]6 | [Ada]2 [Cc] [Dd]2 [Ff] | [Ee]6 | [cec']3 [Beb]3 | [Geg]2 e f2 g | f4 x2 | %67
 [Ge]3- [Ge] z z ::[M:2/2] [ee']2 !>![ff']4 [ee']2 | [cc']2 !>![Bb]4 [Gg]2 | [Ff]4 [Ee]3 [Cc] | %71
 [B,B]4- [B,B]2 z2 | [ee']2 !>![ff']4 [ee']2 | [cc']2 !>![Bb]4 [Gg]2 | [Bb]4 [Ff]3 [Gg] | %75
 [Aa]4- [Aa]2 z2 | [ee']2 !>![ff']4 [ee']2 | [cc']2 !>![Bb]4 [Gg]2 | [Ff]4 [Ee]3 [Cc] | %79
 [B,B]4 z2 (B,C) | .D2 .C2 .B,2 .C2 | .D2 .C2 .B,2 .C2 | .D2 z2 !>![Bb]2 z2 |1 !>![B,B]2 z2 z4 :|2 %84
 !>![ee']2 z2 z4 |] %85
V:2
 F2 =E F2 ^F | AG=F _EDC | B,A,G, F,=E,G, | F,2 z !>![F,,,F,,]2 z |: B,2 [DF] F,2 [DF] | %5
 B,2 [DF] F,2 [DF] | C2 [EF] F,2 [EF] | C2 [EF] F,2 [EF] | A,2 [EF] F,2 [EF] | C2 [EF] F,2 [EF] | %10
 B,2 [DF] F,2 [DF] | B,2 [DF] F,2 [DF] | B,2 [DF] F,2 [DF] | B,2 [DF] F,2 [DF] | C2 F F,2 F | %15
 C2 F F,2 F | C2 =B, C2 ^C | =ED=C B,A,G, | F,2 z !>![F,,F,]2 z | !>![F,,F,]2 z z2 z :| %20
 z2 [A,EF] z2 [A,EF] | z2 [A,EF] z2 [A,EF] | B,2 [DF] F,2 [DF] | B,2 [DF] F,2 [DF] | %24
 C2 [EF] F,2 [EF] | C2 [EF] F,2 [EF] | B,2 [DF] F,2 [DF] | B,2 [DF] F,2 [DF] | %28
 z2 [A,EF] z2 [A,EF] | z2 [A,EF] z2 [A,EF] | B,2 [DF] F,2 [DF] | B,2 [DF] F,2 (D | C2) (G F2) (D | %33
 C2) A, F,G,A, | G,2 z !>![C,C]2 z | !>![F,,F,]2 z z2 z | z2 [A,EF] z2 [A,EF] | %37
 z2 [A,EF] z2 [A,EF] | B,2 [DF] F,2 [DF] | B,2 [DF] F,2 [DF] | C2 [EF] F,2 [EF] | %41
 C2 [EF] F,2 [EF] | B,2 [DF] F,2 [DF] | B,2 [DF] F,2 [DF] | z2 [A,EF] z2 [A,EF] | %45
 z2 [A,EF] z2 [A,EF] | B,2 [DF] F,2 [DF] | B,2 [DF] F,2 (D | C2) (G F2) (D | E2 D CDE | %50
 F2) z !>![F,F]2 z | !>![B,,B,]2 z z2 z |:[K:Eb] E,,3 [B,,E,]3 | G,,3 [B,,E,]3 | F,,3 [B,,A,]3 | %55
 G,,3 [B,,E,]3 | z2 z E,3 | z2 z E,3 | z2 z F,3 | z2 z F,3 | [E,,E,]3 [G,B,E]3 | [G,,G,]3 [B,EG]3 | %62
 [F,,F,]3 [F,A,B,]3 | [G,,G,]3 [G,B,]3 | [A,,A,]3 [G,,G,]3 | [E,,E,]2 E, F,2 G, | F,2 z [B,,B,]3 | %67
 [E,,E,]3- [E,,E,] z z ::[M:2/2] E,2 [G,B,]2 B,,2 [G,B,]2 | E,2 [G,B,]2 B,,2 [G,B,]2 | F,4 E,3 C, | %71
 B,,4- B,,2 z2 | E,2 [G,B,]2 B,,2 [G,B,]2 | E,2 [G,B,]2 B,,2 [G,B,]2 | B,4 F,3 G, | A,4- A,2 z2 | %76
 E,2 [G,B,]2 B,,2 [G,B,]2 | E,2 [G,B,]2 B,,2 [G,B,]2 | F,4 E,3 C, | B,,4 z2 (B,,C,) | %80
 .D,2 .C,2 .B,,2 .C,2 | .D,2 .C,2 .B,,2 .C,2 | .D,2 z2 !>![B,,B,]2 z2 |1 !>![B,,,B,,]2 z2 z4 :|2 %84
 !>![E,,E,]2 z2 z4 |] %85
V:3
 x6 | x6 | x6 | x6 |: x6 | x6 | x6 | x6 | x6 | x6 | x6 | x6 | x6 | x6 | x6 | x6 | x6 | x6 | x6 | %19
 x6 :|[K:bass] x6 | x6 | x2[K:treble] x4 | x6 | x6 | x6 | x6 | x6 |[K:bass] x6 | x6 | %30
 x2[K:treble] x4 | x6 | x6 | x6 | x6 | x6 |[K:bass] x6 | x6 | x2[K:treble] x4 | x6 | x6 | x6 | x6 | %43
 x6 |[K:bass] x6 | x6 | x2[K:treble] x4 | x6 | x6 | x6 | x6 | x6 |:[K:Eb] z2 z [B,E]3 | %53
 z2 z [B,E]3 | x6 | x6 | x6 | x6 | =A,6 | _A,6 | x6 | x6 | x6 | x6 | x6 | x6 | z2 z [Ad]3 | x6 :: %68
[M:2/2] x8 | x8 | x8 | x8 | x8 | x8 | x8 | x8 | x8 | x8 | x8 | x8 | x8 | x8 | x8 |1 x8 :|2 x8 |] %85
V:4
 x6 | x6 | x6 | x6 |: x6 | x6 | x6 | x6 | x6 | x6 | x6 | x6 | x6 | x6 | x6 | x6 | x6 | x6 | x6 | %19
 x6 :| x6 | x6 | x6 | x6 | x6 | x6 | x6 | x6 | x6 | x6 | x6 | x6 | x6 | x6 | x6 | x6 | x6 | x6 | %38
 x6 | x6 | x6 | x6 | x6 | x6 | x6 | x6 | x6 | x6 | x6 | x6 | x6 | x6 |:[K:Eb] x6 | x6 | x6 | x6 | %56
 !>!A,,6 | !>!G,,6 | !>!F,,6 | !>!B,,6 | x6 | x6 | x6 | x6 | x6 | x6 | x6 | x6 ::[M:2/2] x8 | x8 | %70
 x8 | x8 | x8 | x8 | x8 | x8 | x8 | x8 | x8 | x8 | x8 | x8 | x8 |1 x8 :|2 x8 |] %85

